X: 1857
T:Mouse on the Duvet
R:Jig
O:New Zealand
M:6/8
I:speed 500
C:Mark Fitzsimons & Caroline Crosby
Z:Mark Fitzsimons <markfitzsimons@xtra.co.nz>
A:Auckland
K:Em
|:Bee efe|gbg eBc|Bee efe|gbg gfe|\
Bee efe|gbg eBc|Bee efg|f2a =f2_a:|
|:edc e2d|eag edc|efg e2f|eag dgf|\
edc e2d|eag edc|efg e2d| cBA GEA:|
